icons/modern/palm-up-hand.svg

<svg width="32" height="32" viewBox="0 0 32 32" fill="none" xmlns="http://www.w3.org/2000/svg">
<g filter="url(#filter0_i_20020_6662)">
<path d="M15.5006 15.0392C14.4034 15.4319 13.89 16.6629 14.2813 17.8047L16.25 22.6406L19.8765 21.3248L18.1941 16.4022C17.8054 15.2568 16.5983 14.6496 15.5006 15.0392Z" fill="url(#paint0_radial_20020_6662)"/>
<path d="M15.5006 15.0392C14.4034 15.4319 13.89 16.6629 14.2813 17.8047L16.25 22.6406L19.8765 21.3248L18.1941 16.4022C17.8054 15.2568 16.5983 14.6496 15.5006 15.0392Z" fill="url(#paint1_radial_20020_6662)"/>
</g>
<g filter="url(#filter1_i_20020_6662)">
<path d="M19.4305 13.1035C18.295 13.2185 17.4685 14.2298 17.5805 15.3652L18.071 20.2551L22.1797 19.8433L21.6922 14.9504C21.5772 13.815 20.5659 12.9884 19.4305 13.1035Z" fill="url(#paint2_radial_20020_6662)"/>
<path d="M19.4305 13.1035C18.295 13.2185 17.4685 14.2298 17.5805 15.3652L18.071 20.2551L22.1797 19.8433L21.6922 14.9504C21.5772 13.815 20.5659 12.9884 19.4305 13.1035Z" fill="url(#paint3_radial_20020_6662)"/>
<path d="M19.4305 13.1035C18.295 13.2185 17.4685 14.2298 17.5805 15.3652L18.071 20.2551L22.1797 19.8433L21.6922 14.9504C21.5772 13.815 20.5659 12.9884 19.4305 13.1035Z" fill="url(#paint4_linear_20020_6662)"/>
</g>
<g filter="url(#filter2_i_20020_6662)">
<path d="M24.0906 12.2172C22.9788 12.0099 21.9091 12.7461 21.7017 13.8579L21.0822 17.9555C21.0063 18.4575 20.7423 18.9119 20.3437 19.2265L20.1254 19.3988H24.8418L25.7312 14.6061C25.9356 13.4913 25.2024 12.4215 24.0906 12.2172Z" fill="url(#paint5_radial_20020_6662)"/>
<path d="M24.0906 12.2172C22.9788 12.0099 21.9091 12.7461 21.7017 13.8579L21.0822 17.9555C21.0063 18.4575 20.7423 18.9119 20.3437 19.2265L20.1254 19.3988H24.8418L25.7312 14.6061C25.9356 13.4913 25.2024 12.4215 24.0906 12.2172Z" fill="url(#paint6_radial_20020_6662)"/>
</g>
<g filter="url(#filter3_ii_20020_6662)">
<path d="M12.625 16.1266C12.625 17.8282 14.2969 19.0078 16.1094 19.0078H19.7656C20.5664 19.0078 20.9401 18.8703 21.4219 18.3867L25.4516 14.9318C26.5143 13.9461 28.0543 13.5779 29.2242 14.682C30.4674 15.8554 30.0366 17.4425 28.9129 18.4538L23.0461 23.555C21.6395 24.8695 20.7866 25.369 19.0368 25.369L10.3214 25.3979C5.49579 25.4268 2.04688 22.9375 2.04688 18.5468C2.04688 16.4218 3.64062 14.1796 5.04688 12.7656L7.10938 10.7656C8.60156 9.36714 9.77344 8.72652 11.2031 8.35152C12.6328 7.97652 14.5078 8.21089 14.5078 8.21089C15.0986 8.21089 15.563 8.13309 16.0703 7.82808C16.9757 7.28227 18.2675 7.28312 19.0156 8.0312C19.6562 8.58589 20.0156 9.5312 19.7344 10.5078C19.4874 11.1228 19.2244 11.4112 18.6953 11.8359C17.6178 12.7023 16.0352 13.0525 14.729 13.1562C13.2812 13.4062 12.625 14.441 12.625 16.1266Z" fill="url(#paint7_radial_20020_6662)"/>
</g>
<path d="M12.625 16.1266C12.625 17.8282 14.2969 19.0078 16.1094 19.0078H19.7656C20.5664 19.0078 20.9401 18.8703 21.4219 18.3867L25.4516 14.9318C26.5143 13.9461 28.0543 13.5779 29.2242 14.682C30.4674 15.8554 30.0366 17.4425 28.9129 18.4538L23.0461 23.555C21.6395 24.8695 20.7866 25.369 19.0368 25.369L10.3214 25.3979C5.49579 25.4268 2.04688 22.9375 2.04688 18.5468C2.04688 16.4218 3.64062 14.1796 5.04688 12.7656L7.10938 10.7656C8.60156 9.36714 9.77344 8.72652 11.2031 8.35152C12.6328 7.97652 14.5078 8.21089 14.5078 8.21089C15.0986 8.21089 15.563 8.13309 16.0703 7.82808C16.9757 7.28227 18.2675 7.28312 19.0156 8.0312C19.6562 8.58589 20.0156 9.5312 19.7344 10.5078C19.4874 11.1228 19.2244 11.4112 18.6953 11.8359C17.6178 12.7023 16.0352 13.0525 14.729 13.1562C13.2812 13.4062 12.625 14.441 12.625 16.1266Z" fill="url(#paint8_radial_20020_6662)"/>
<path d="M12.625 16.1266C12.625 17.8282 14.2969 19.0078 16.1094 19.0078H19.7656C20.5664 19.0078 20.9401 18.8703 21.4219 18.3867L25.4516 14.9318C26.5143 13.9461 28.0543 13.5779 29.2242 14.682C30.4674 15.8554 30.0366 17.4425 28.9129 18.4538L23.0461 23.555C21.6395 24.8695 20.7866 25.369 19.0368 25.369L10.3214 25.3979C5.49579 25.4268 2.04688 22.9375 2.04688 18.5468C2.04688 16.4218 3.64062 14.1796 5.04688 12.7656L7.10938 10.7656C8.60156 9.36714 9.77344 8.72652 11.2031 8.35152C12.6328 7.97652 14.5078 8.21089 14.5078 8.21089C15.0986 8.21089 15.563 8.13309 16.0703 7.82808C16.9757 7.28227 18.2675 7.28312 19.0156 8.0312C19.6562 8.58589 20.0156 9.5312 19.7344 10.5078C19.4874 11.1228 19.2244 11.4112 18.6953 11.8359C17.6178 12.7023 16.0352 13.0525 14.729 13.1562C13.2812 13.4062 12.625 14.441 12.625 16.1266Z" fill="url(#paint9_linear_20020_6662)"/>
<g filter="url(#filter4_f_20020_6662)">
<path d="M21.0399 22.7057L27.7803 16.7647C28.0984 16.4843 28.1057 15.9908 27.796 15.7011C27.5267 15.4492 27.1105 15.4421 26.8328 15.6846L21.9785 19.923C21.5668 20.2824 21.0259 20.4577 20.4817 20.4081L14.2101 19.8368C12.1501 19.6492 10.573 17.9219 10.573 15.8533V15.6668C10.573 14.7194 10.9093 13.8027 11.522 13.08L11.7095 12.8589C12.2039 12.2758 12.9023 11.9034 13.6621 11.8179L15.5685 11.6032C16.2192 11.53 16.8281 11.2458 17.3022 10.7942L18.2528 9.88857C18.4788 9.67326 18.4807 9.31326 18.2569 9.09563C18.0607 8.90485 17.7542 8.88721 17.5374 9.05422L17.2601 9.26786C16.6925 9.70514 15.9816 9.91371 15.2677 9.85238L12.9708 9.65506C11.7849 9.55317 10.6152 9.98472 9.77968 10.8324L5.9907 14.6764C5.02996 15.6511 4.63424 17.0494 4.94169 18.383L5.21806 19.5817C5.72878 21.7971 7.66974 23.389 9.94218 23.4563L18.2765 23.7032C19.2908 23.7333 20.2786 23.3767 21.0399 22.7057Z" fill="url(#paint10_radial_20020_6662)"/>
</g>
<defs>
<filter id="filter0_i_20020_6662" x="14.1509" y="14.9213" width="5.72552" height="7.7193" filterUnits="userSpaceOnUse" color-interpolation-filters="sRGB">
<feFlood flood-opacity="0" result="BackgroundImageFix"/>
<feBlend mode="normal" in="SourceGraphic" in2="BackgroundImageFix" result="shape"/>
<feColorMatrix in="SourceAlpha" type="matrix" values="0 0 0 0 0 0 0 0 0 0 0 0 0 0 0 0 0 0 127 0" result="hardAlpha"/>
<feOffset/>
<feGaussianBlur stdDeviation="0.25"/>
<feComposite in2="hardAlpha" operator="arithmetic" k2="-1" k3="1"/>
<feColorMatrix type="matrix" values="0 0 0 0 0.784314 0 0 0 0 0.623529 0 0 0 0 0.356863 0 0 0 1 0"/>
<feBlend mode="normal" in2="shape" result="effect1_innerShadow_20020_6662"/>
</filter>
<filter id="filter1_i_20020_6662" x="17.5703" y="13.0928" width="4.60938" height="7.16235" filterUnits="userSpaceOnUse" color-interpolation-filters="sRGB">
<feFlood flood-opacity="0" result="BackgroundImageFix"/>
<feBlend mode="normal" in="SourceGraphic" in2="BackgroundImageFix" result="shape"/>
<feColorMatrix in="SourceAlpha" type="matrix" values="0 0 0 0 0 0 0 0 0 0 0 0 0 0 0 0 0 0 127 0" result="hardAlpha"/>
<feOffset/>
<feGaussianBlur stdDeviation="0.25"/>
<feComposite in2="hardAlpha" operator="arithmetic" k2="-1" k3="1"/>
<feColorMatrix type="matrix" values="0 0 0 0 0.784314 0 0 0 0 0.623529 0 0 0 0 0.356863 0 0 0 1 0"/>
<feBlend mode="normal" in2="shape" result="effect1_innerShadow_20020_6662"/>
</filter>
<filter id="filter2_i_20020_6662" x="20.1254" y="12.1823" width="5.64001" height="7.21655" filterUnits="userSpaceOnUse" color-interpolation-filters="sRGB">
<feFlood flood-opacity="0" result="BackgroundImageFix"/>
<feBlend mode="normal" in="SourceGraphic" in2="BackgroundImageFix" result="shape"/>
<feColorMatrix in="SourceAlpha" type="matrix" values="0 0 0 0 0 0 0 0 0 0 0 0 0 0 0 0 0 0 127 0" result="hardAlpha"/>
<feOffset/>
<feGaussianBlur stdDeviation="0.25"/>
<feComposite in2="hardAlpha" operator="arithmetic" k2="-1" k3="1"/>
<feColorMatrix type="matrix" values="0 0 0 0 0.784314 0 0 0 0 0.623529 0 0 0 0 0.356863 0 0 0 1 0"/>
<feBlend mode="normal" in2="shape" result="effect1_innerShadow_20020_6662"/>
</filter>
<filter id="filter3_ii_20020_6662" x="2.04688" y="6.19141" width="29.1807" height="19.2067" filterUnits="userSpaceOnUse" color-interpolation-filters="sRGB">
<feFlood flood-opacity="0" result="BackgroundImageFix"/>
<feBlend mode="normal" in="SourceGraphic" in2="BackgroundImageFix" result="shape"/>
<feColorMatrix in="SourceAlpha" type="matrix" values="0 0 0 0 0 0 0 0 0 0 0 0 0 0 0 0 0 0 127 0" result="hardAlpha"/>
<feOffset dx="1.25" dy="-1.25"/>
<feGaussianBlur stdDeviation="0.75"/>
<feComposite in2="hardAlpha" operator="arithmetic" k2="-1" k3="1"/>
<feColorMatrix type="matrix" values="0 0 0 0 0.984314 0 0 0 0 0.623529 0 0 0 0 0.286275 0 0 0 1 0"/>
<feBlend mode="normal" in2="shape" result="effect1_innerShadow_20020_6662"/>
<feColorMatrix in="SourceAlpha" type="matrix" values="0 0 0 0 0 0 0 0 0 0 0 0 0 0 0 0 0 0 127 0" result="hardAlpha"/>
<feOffset/>
<feGaussianBlur stdDeviation="0.25"/>
<feComposite in2="hardAlpha" operator="arithmetic" k2="-1" k3="1"/>
<feColorMatrix type="matrix" values="0 0 0 0 0.807843 0 0 0 0 0.541176 0 0 0 0 0.356863 0 0 0 1 0"/>
<feBlend mode="normal" in2="effect1_innerShadow_20020_6662" result="effect2_innerShadow_20020_6662"/>
</filter>
<filter id="filter4_f_20020_6662" x="2.83936" y="6.93982" width="27.1843" height="18.7651" filterUnits="userSpaceOnUse" color-interpolation-filters="sRGB">
<feFlood flood-opacity="0" result="BackgroundImageFix"/>
<feBlend mode="normal" in="SourceGraphic" in2="BackgroundImageFix" result="shape"/>
<feGaussianBlur stdDeviation="1" result="effect1_foregroundBlur_20020_6662"/>
</filter>
<radialGradient id="paint0_radial_20020_6662" cx="0" cy="0" r="1" gradientUnits="userSpaceOnUse" gradientTransform="translate(16.1875 16.3125) rotate(69.0343) scale(3.58082 2.34566)">
<stop stop-color="#EDB249"/>
<stop offset="1" stop-color="#D7911D"/>
</radialGradient>
<radialGradient id="paint1_radial_20020_6662" cx="0" cy="0" r="1" gradientUnits="userSpaceOnUse" gradientTransform="translate(19.5938 17.6875) rotate(-142.242) scale(4.03173 2.5908)">
<stop offset="0.310388" stop-color="#D18802"/>
<stop offset="1" stop-color="#D18802" stop-opacity="0"/>
</radialGradient>
<radialGradient id="paint2_radial_20020_6662" cx="0" cy="0" r="1" gradientUnits="userSpaceOnUse" gradientTransform="translate(19.625 13.75) rotate(81.5642) scale(7.45566 2.10591)">
<stop stop-color="#FEC953"/>
<stop offset="1" stop-color="#F3AE18"/>
</radialGradient>
<radialGradient id="paint3_radial_20020_6662" cx="0" cy="0" r="1" gradientUnits="userSpaceOnUse" gradientTransform="translate(22.1797 16.9375) rotate(-102.434) scale(4.60808 1.56665)">
<stop offset="0.243679" stop-color="#D08B04"/>
<stop offset="1" stop-color="#D08B04" stop-opacity="0"/>
</radialGradient>
<linearGradient id="paint4_linear_20020_6662" x1="17.5703" y1="17.7812" x2="19.1875" y2="17.7187" gradientUnits="userSpaceOnUse">
<stop stop-color="#E89F2C"/>
<stop offset="1" stop-color="#E89F2C" stop-opacity="0"/>
</linearGradient>
<radialGradient id="paint5_radial_20020_6662" cx="0" cy="0" r="1" gradientUnits="userSpaceOnUse" gradientTransform="translate(24.1431 12.798) rotate(101.967) scale(7.33679 1.03879)">
<stop stop-color="#FFD055"/>
<stop offset="1" stop-color="#FDB626"/>
</radialGradient>
<radialGradient id="paint6_radial_20020_6662" cx="0" cy="0" r="1" gradientUnits="userSpaceOnUse" gradientTransform="translate(24.3382 12.642) rotate(100.235) scale(2.85393 2.98344)">
<stop stop-color="#FFDA4B"/>
<stop offset="1" stop-color="#FFDA4B" stop-opacity="0"/>
</radialGradient>
<radialGradient id="paint7_radial_20020_6662" cx="0" cy="0" r="1" gradientUnits="userSpaceOnUse" gradientTransform="translate(22.3929 13.3035) rotate(149.268) scale(21.5432 31.4978)">
<stop stop-color="#FCC92A"/>
<stop offset="1" stop-color="#FFB254"/>
</radialGradient>
<radialGradient id="paint8_radial_20020_6662" cx="0" cy="0" r="1" gradientUnits="userSpaceOnUse" gradientTransform="translate(2.47989 22.7418) rotate(-37.9131) scale(5.33341 12.6508)">
<stop stop-color="#CE8961"/>
<stop offset="1" stop-color="#ED9F33" stop-opacity="0"/>
</radialGradient>
<linearGradient id="paint9_linear_20020_6662" x1="14.4792" y1="25.3982" x2="14.4792" y2="24.3252" gradientUnits="userSpaceOnUse">
<stop stop-color="#F27BBC"/>
<stop offset="1" stop-color="#F98577" stop-opacity="0"/>
</linearGradient>
<radialGradient id="paint10_radial_20020_6662" cx="0" cy="0" r="1" gradientUnits="userSpaceOnUse" gradientTransform="translate(3.32953 18.8578) rotate(-17.2658) scale(12.541 9.77596)">
<stop stop-color="#FFDF56" stop-opacity="0"/>
<stop offset="0.790294" stop-color="#FFDF56"/>
</radialGradient>
</defs>
</svg>

<svg width="32" height="32" fill="none" xmlns="http://www.w3.org/2000/svg"><g filter="url(#a)"><path d="M15.5 15.04c-1.097.392-1.61 1.623-1.219 2.765l1.969 4.836 3.627-1.316-1.683-4.923c-.389-1.145-1.596-1.752-2.693-1.363Z" fill="url(#b)"/><path d="M15.5 15.04c-1.097.392-1.61 1.623-1.219 2.765l1.969 4.836 3.627-1.316-1.683-4.923c-.389-1.145-1.596-1.752-2.693-1.363Z" fill="url(#c)"/></g><g filter="url(#d)"><path d="M19.43 13.104a2.068 2.068 0 0 0-1.85 2.261l.491 4.89 4.109-.412-.488-4.893a2.064 2.064 0 0 0-2.262-1.846Z" fill="url(#e)"/><path d="M19.43 13.104a2.068 2.068 0 0 0-1.85 2.261l.491 4.89 4.109-.412-.488-4.893a2.064 2.064 0 0 0-2.262-1.846Z" fill="url(#f)"/><path d="M19.43 13.104a2.068 2.068 0 0 0-1.85 2.261l.491 4.89 4.109-.412-.488-4.893a2.064 2.064 0 0 0-2.262-1.846Z" fill="url(#g)"/></g><g filter="url(#h)"><path d="M24.09 12.217a2.05 2.05 0 0 0-2.388 1.64l-.62 4.099a2 2 0 0 1-.738 1.27l-.219.173h4.717l.89-4.793a2.05 2.05 0 0 0-1.641-2.389Z" fill="url(#i)"/><path d="M24.09 12.217a2.05 2.05 0 0 0-2.388 1.64l-.62 4.099a2 2 0 0 1-.738 1.27l-.219.173h4.717l.89-4.793a2.05 2.05 0 0 0-1.641-2.389Z" fill="url(#j)"/></g><g filter="url(#k)"><path d="M12.625 16.127c0 1.701 1.672 2.88 3.484 2.88h3.657c.8 0 1.174-.137 1.656-.62l4.03-3.455c1.062-.986 2.602-1.354 3.772-.25 1.243 1.173.813 2.76-.311 3.772l-5.867 5.101c-1.406 1.314-2.26 1.814-4.01 1.814l-8.715.029c-4.825.029-8.274-2.46-8.274-6.851 0-2.125 1.594-4.367 3-5.781l2.062-2c1.493-1.399 2.664-2.04 4.094-2.414 1.43-.375 3.305-.141 3.305-.141.59 0 1.055-.078 1.562-.383.906-.546 2.197-.545 2.946.203.64.555 1 1.5.718 2.477-.247.615-.51.903-1.039 1.328-1.077.866-2.66 1.216-3.966 1.32-1.448.25-2.104 1.285-2.104 2.97Z" fill="url(#l)"/></g><path d="M12.625 16.127c0 1.701 1.672 2.88 3.484 2.88h3.657c.8 0 1.174-.137 1.656-.62l4.03-3.455c1.062-.986 2.602-1.354 3.772-.25 1.243 1.173.813 2.76-.311 3.772l-5.867 5.101c-1.406 1.314-2.26 1.814-4.01 1.814l-8.715.029c-4.825.029-8.274-2.46-8.274-6.851 0-2.125 1.594-4.367 3-5.781l2.062-2c1.493-1.399 2.664-2.04 4.094-2.414 1.43-.375 3.305-.141 3.305-.141.59 0 1.055-.078 1.562-.383.906-.546 2.197-.545 2.946.203.64.555 1 1.5.718 2.477-.247.615-.51.903-1.039 1.328-1.077.866-2.66 1.216-3.966 1.32-1.448.25-2.104 1.285-2.104 2.97Z" fill="url(#m)"/><path d="M12.625 16.127c0 1.701 1.672 2.88 3.484 2.88h3.657c.8 0 1.174-.137 1.656-.62l4.03-3.455c1.062-.986 2.602-1.354 3.772-.25 1.243 1.173.813 2.76-.311 3.772l-5.867 5.101c-1.406 1.314-2.26 1.814-4.01 1.814l-8.715.029c-4.825.029-8.274-2.46-8.274-6.851 0-2.125 1.594-4.367 3-5.781l2.062-2c1.493-1.399 2.664-2.04 4.094-2.414 1.43-.375 3.305-.141 3.305-.141.59 0 1.055-.078 1.562-.383.906-.546 2.197-.545 2.946.203.64.555 1 1.5.718 2.477-.247.615-.51.903-1.039 1.328-1.077.866-2.66 1.216-3.966 1.32-1.448.25-2.104 1.285-2.104 2.97Z" fill="url(#n)"/><g filter="url(#o)"><path d="m21.04 22.706 6.74-5.941a.718.718 0 0 0-.947-1.08l-4.854 4.238a2 2 0 0 1-1.497.485l-6.272-.571a4 4 0 0 1-3.637-3.984v-.186a4 4 0 0 1 .949-2.587l.188-.221a3 3 0 0 1 1.952-1.041l1.906-.215a3 3 0 0 0 1.734-.809l.95-.905a.55.55 0 0 0-.715-.835l-.277.214a2.863 2.863 0 0 1-1.992.584l-2.297-.197a4 4 0 0 0-3.191 1.177l-3.79 3.844a4 4 0 0 0-1.048 3.707l.276 1.199a5 5 0 0 0 4.724 3.874l8.334.247a4 4 0 0 0 2.764-.997Z" fill="url(#p)"/></g><defs><radialGradient id="b" cx="0" cy="0" r="1" gradientUnits="userSpaceOnUse" gradientTransform="rotate(69.034 -3.766 19.925) scale(3.58082 2.34566)"><stop stop-color="#EDB249"/><stop offset="1" stop-color="#D7911D"/></radialGradient><radialGradient id="c" cx="0" cy="0" r="1" gradientUnits="userSpaceOnUse" gradientTransform="matrix(-3.1875 -2.46874 1.58642 -2.0483 19.594 17.688)"><stop offset=".31" stop-color="#D18802"/><stop offset="1" stop-color="#D18802" stop-opacity="0"/></radialGradient><radialGradient id="e" cx="0" cy="0" r="1" gradientUnits="userSpaceOnUse" gradientTransform="matrix(1.09375 7.375 -2.08313 .30894 19.625 13.75)"><stop stop-color="#FEC953"/><stop offset="1" stop-color="#F3AE18"/></radialGradient><radialGradient id="f" cx="0" cy="0" r="1" gradientUnits="userSpaceOnUse" gradientTransform="matrix(-.99219 -4.5 1.5299 -.33732 22.18 16.938)"><stop offset=".244" stop-color="#D08B04"/><stop offset="1" stop-color="#D08B04" stop-opacity="0"/></radialGradient><radialGradient id="i" cx="0" cy="0" r="1" gradientUnits="userSpaceOnUse" gradientTransform="rotate(101.967 6.887 16.18) scale(7.33679 1.03879)"><stop stop-color="#FFD055"/><stop offset="1" stop-color="#FDB626"/></radialGradient><radialGradient id="j" cx="0" cy="0" r="1" gradientUnits="userSpaceOnUse" gradientTransform="rotate(100.235 6.887 16.49) scale(2.85393 2.98344)"><stop stop-color="#FFDA4B"/><stop offset="1" stop-color="#FFDA4B" stop-opacity="0"/></radialGradient><radialGradient id="l" cx="0" cy="0" r="1" gradientUnits="userSpaceOnUse" gradientTransform="matrix(-18.51782 11.00907 -16.0961 -27.07447 22.393 13.303)"><stop stop-color="#FCC92A"/><stop offset="1" stop-color="#FFB254"/></radialGradient><radialGradient id="m" cx="0" cy="0" r="1" gradientUnits="userSpaceOnUse" gradientTransform="rotate(-37.913 34.345 7.76) scale(5.33341 12.6508)"><stop stop-color="#CE8961"/><stop offset="1" stop-color="#ED9F33" stop-opacity="0"/></radialGradient><radialGradient id="p" cx="0" cy="0" r="1" gradientUnits="userSpaceOnUse" gradientTransform="rotate(-17.266 63.77 -1.536) scale(12.541 9.77596)"><stop stop-color="#FFDF56" stop-opacity="0"/><stop offset=".79" stop-color="#FFDF56"/></radialGradient><filter id="a" x="14.151" y="14.921" width="5.726" height="7.719" filterUnits="userSpaceOnUse" color-interpolation-filters="sRGB"><feFlood flood-opacity="0" result="BackgroundImageFix"/><feBlend in="SourceGraphic" in2="BackgroundImageFix" result="shape"/><feColorMatrix in="SourceAlpha" values="0 0 0 0 0 0 0 0 0 0 0 0 0 0 0 0 0 0 127 0" result="hardAlpha"/><feOffset/><feGaussianBlur stdDeviation=".25"/><feComposite in2="hardAlpha" operator="arithmetic" k2="-1" k3="1"/><feColorMatrix values="0 0 0 0 0.784314 0 0 0 0 0.623529 0 0 0 0 0.356863 0 0 0 1 0"/><feBlend in2="shape" result="effect1_innerShadow_20020_6662"/></filter><filter id="d" x="17.57" y="13.093" width="4.609" height="7.162" filterUnits="userSpaceOnUse" color-interpolation-filters="sRGB"><feFlood flood-opacity="0" result="BackgroundImageFix"/><feBlend in="SourceGraphic" in2="BackgroundImageFix" result="shape"/><feColorMatrix in="SourceAlpha" values="0 0 0 0 0 0 0 0 0 0 0 0 0 0 0 0 0 0 127 0" result="hardAlpha"/><feOffset/><feGaussianBlur stdDeviation=".25"/><feComposite in2="hardAlpha" operator="arithmetic" k2="-1" k3="1"/><feColorMatrix values="0 0 0 0 0.784314 0 0 0 0 0.623529 0 0 0 0 0.356863 0 0 0 1 0"/><feBlend in2="shape" result="effect1_innerShadow_20020_6662"/></filter><filter id="h" x="20.125" y="12.182" width="5.64" height="7.217" filterUnits="userSpaceOnUse" color-interpolation-filters="sRGB"><feFlood flood-opacity="0" result="BackgroundImageFix"/><feBlend in="SourceGraphic" in2="BackgroundImageFix" result="shape"/><feColorMatrix in="SourceAlpha" values="0 0 0 0 0 0 0 0 0 0 0 0 0 0 0 0 0 0 127 0" result="hardAlpha"/><feOffset/><feGaussianBlur stdDeviation=".25"/><feComposite in2="hardAlpha" operator="arithmetic" k2="-1" k3="1"/><feColorMatrix values="0 0 0 0 0.784314 0 0 0 0 0.623529 0 0 0 0 0.356863 0 0 0 1 0"/><feBlend in2="shape" result="effect1_innerShadow_20020_6662"/></filter><filter id="k" x="2.047" y="6.191" width="29.181" height="19.207" filterUnits="userSpaceOnUse" color-interpolation-filters="sRGB"><feFlood flood-opacity="0" result="BackgroundImageFix"/><feBlend in="SourceGraphic" in2="BackgroundImageFix" result="shape"/><feColorMatrix in="SourceAlpha" values="0 0 0 0 0 0 0 0 0 0 0 0 0 0 0 0 0 0 127 0" result="hardAlpha"/><feOffset dx="1.25" dy="-1.25"/><feGaussianBlur stdDeviation=".75"/><feComposite in2="hardAlpha" operator="arithmetic" k2="-1" k3="1"/><feColorMatrix values="0 0 0 0 0.984314 0 0 0 0 0.623529 0 0 0 0 0.286275 0 0 0 1 0"/><feBlend in2="shape" result="effect1_innerShadow_20020_6662"/><feColorMatrix in="SourceAlpha" values="0 0 0 0 0 0 0 0 0 0 0 0 0 0 0 0 0 0 127 0" result="hardAlpha"/><feOffset/><feGaussianBlur stdDeviation=".25"/><feComposite in2="hardAlpha" operator="arithmetic" k2="-1" k3="1"/><feColorMatrix values="0 0 0 0 0.807843 0 0 0 0 0.541176 0 0 0 0 0.356863 0 0 0 1 0"/><feBlend in2="effect1_innerShadow_20020_6662" result="effect2_innerShadow_20020_6662"/></filter><filter id="o" x="2.839" y="6.94" width="27.184" height="18.765" filterUnits="userSpaceOnUse" color-interpolation-filters="sRGB"><feFlood flood-opacity="0" result="BackgroundImageFix"/><feBlend in="SourceGraphic" in2="BackgroundImageFix" result="shape"/><feGaussianBlur stdDeviation="1" result="effect1_foregroundBlur_20020_6662"/></filter><linearGradient id="g" x1="17.57" y1="17.781" x2="19.188" y2="17.719" gradientUnits="userSpaceOnUse"><stop stop-color="#E89F2C"/><stop offset="1" stop-color="#E89F2C" stop-opacity="0"/></linearGradient><linearGradient id="n" x1="14.479" y1="25.398" x2="14.479" y2="24.325" gradientUnits="userSpaceOnUse"><stop stop-color="#F27BBC"/><stop offset="1" stop-color="#F98577" stop-opacity="0"/></linearGradient></defs></svg>
